public/fraud.svg

<svg fill="none" height="61" viewBox="0 0 51 61" width="51" xmlns="http://www.w3.org/2000/svg" xmlns:xlink="http://www.w3.org/1999/xlink"><linearGradient id="a" gradientUnits="userSpaceOnUse" x1="-2.88256" x2="63.7186" y1="13.2072" y2="33.2035"><stop offset=".00800497" stop-color="#38dbff"/><stop offset="1" stop-color="#243aff"/></linearGradient><path d="m50.5085 28.9572v-19.11754c-17.2556 3.17824-24.5912-9.117338-24.9924-9.807559l-.0161-.032101-.0642.112361c-.7705 1.300179-8.1703 12.825239-24.944261 9.727299v19.11754s-.947048 22.9378 24.703461 31.1562l.305.1445.305-.1445c25.6505-8.2184 24.7035-31.1562 24.7035-31.1562zm-20.8351-7.8974-1.7496 18.4593h-4.9118l-1.7175-18.4593zm-4.1895 27.5767c-2.4398 0-4.2376-1.6855-4.2376-4.0129 0-2.3275 1.7657-4.045 4.2376-4.045 2.5202 0 4.2698 1.7175 4.2698 4.045 0 2.3274-1.8299 4.0129-4.2698 4.0129z" fill="url(#a)"/></svg>

<svg width="51" height="61" viewBox="0 0 51 61" fill="none" xmlns="http://www.w3.org/2000/svg">
<path d="M50.5085 28.9572V9.83966C33.2529 13.0179 25.9173 0.722322 25.5161 0.032101L25.5 0L25.4358 0.112361C24.6653 1.41254 17.2655 12.9376 0.491539 9.83966V28.9572C0.491539 28.9572 -0.455509 51.895 25.195 60.1134L25.5 60.2579L25.805 60.1134C51.4555 51.895 50.5085 28.9572 50.5085 28.9572ZM29.6734 21.0598L27.9238 39.5191H23.012L21.2945 21.0598H29.6734ZM25.4839 48.6365C23.0441 48.6365 21.2463 46.951 21.2463 44.6236C21.2463 42.2961 23.012 40.5786 25.4839 40.5786C28.0041 40.5786 29.7537 42.2961 29.7537 44.6236C29.7537 46.951 27.9238 48.6365 25.4839 48.6365Z" fill="url(#paint0_linear_76_849)"/>
<defs>
<linearGradient id="paint0_linear_76_849" x1="-2.88256" y1="13.2072" x2="63.7186" y2="33.2035" gradientUnits="userSpaceOnUse">
<stop offset="0.00800497" stop-color="#38DBFF"/>
<stop offset="1" stop-color="#243AFF"/>
</linearGradient>
</defs>
</svg>
